src/assets/icons/curious-pattern.svg

<?xml version="1.0" encoding="UTF-8"?>
<!-- Generated by Pixelmator Pro 3.2.3 -->
<svg width="2200" height="2200" viewBox="0 0 2200 2200" xmlns="http://www.w3.org/2000/svg" xmlns:xlink="http://www.w3.org/1999/xlink">
    <g id="curiosity" opacity="0.048533">
        <path id="Ellipse-copy" fill="#000000" fill-rule="evenodd" stroke="none" d="M 1101.267578 1599.923828 C 928.187622 1600.227295 759.735413 1510.532227 666.984375 1349.882813 C 528.93634 1110.776611 610.860596 805.032349 849.966797 666.984375 C 1089.072876 528.936279 1394.817139 610.860718 1532.865234 849.966797 C 1670.913208 1089.072998 1588.988892 1394.817139 1349.882813 1532.865234 C 1271.426147 1578.162231 1185.795044 1599.775635 1101.267578 1599.923828 Z M 1239.025391 1466.466797 C 1260.354492 1466.426758 1281.96521 1460.968384 1301.771484 1449.533203 C 1362.133667 1414.683105 1382.797363 1337.565186 1347.947266 1277.203125 L 1335.332031 1255.353516 L 1116.826172 1381.507813 L 1129.441406 1403.357422 C 1152.856323 1443.913208 1195.35144 1466.548828 1239.025391 1466.466797 Z M 1091.515625 1337.669922 L 1310.021484 1211.515625 L 1310.101563 1211.652344 C 1298.059937 1160.518555 1303.790161 1107.680786 1309.326172 1055.138672 C 1310.82959 1041.342529 1312.333008 1027.546631 1313.484375 1013.771484 C 1318.053223 959.238647 1306.692993 902.978149 1277.283203 852.039063 C 1200.565796 719.1604 1030.82019 673.677856 898.078125 750.316406 C 765.336121 826.954956 719.853516 996.699341 796.492188 1129.441406 C 825.901855 1180.380493 869.022705 1218.487061 918.455078 1241.660156 C 930.960327 1247.550537 943.659851 1253.145996 956.359375 1258.742188 C 1004.766724 1280.139893 1053.468628 1301.732422 1091.515625 1337.669922 Z M 905.828125 1091.576172 C 897.08667 1091.580078 888.554382 1087.054932 883.892578 1078.980469 C 835.086731 994.446167 864.004761 886.524658 948.539063 837.71875 C 960.556885 830.780273 976.067322 834.935303 983.005859 846.953125 C 989.944336 858.970947 985.787354 874.479492 973.769531 881.417969 C 913.407471 916.268066 892.743713 993.385742 927.59375 1053.748047 C 934.532227 1065.765869 930.377136 1081.276367 918.359375 1088.214844 C 914.416016 1090.491577 910.097229 1091.574219 905.828125 1091.576172 Z"/>
        <path id="Ellipse-copy-2" fill="#000000" fill-rule="evenodd" stroke="none" d="M 2201.242188 1599.923828 C 2028.162231 1600.227295 1859.709961 1510.532227 1766.958984 1349.882813 C 1628.911011 1110.776611 1710.835205 805.032349 1949.941406 666.984375 C 2189.047607 528.936279 2494.791992 610.860718 2632.839844 849.966797 C 2770.887939 1089.072998 2688.963623 1394.817139 2449.857422 1532.865234 C 2371.400879 1578.162231 2285.769531 1599.775635 2201.242188 1599.923828 Z M 2339 1466.466797 C 2360.329102 1466.426758 2381.939697 1460.968384 2401.746094 1449.533203 C 2462.108398 1414.683105 2482.772217 1337.565186 2447.921875 1277.203125 L 2435.306641 1255.353516 L 2216.800781 1381.507813 L 2229.417969 1403.357422 C 2252.832764 1443.913208 2295.326172 1466.548828 2339 1466.466797 Z M 2191.492188 1337.669922 L 2409.998047 1211.515625 L 2410.076172 1211.652344 C 2398.034668 1160.518555 2403.764648 1107.680786 2409.300781 1055.138672 C 2410.804199 1041.342529 2412.307617 1027.546631 2413.458984 1013.771484 C 2418.027832 959.238647 2406.66748 902.978149 2377.257813 852.039063 C 2300.540283 719.1604 2130.794678 673.677856 1998.052734 750.316406 C 1865.310669 826.954956 1819.828247 996.699341 1896.466797 1129.441406 C 1925.876587 1180.380493 1968.999146 1218.487061 2018.431641 1241.660156 C 2030.93689 1247.550537 2043.636475 1253.145996 2056.335938 1258.742188 C 2104.743408 1280.139893 2153.445313 1301.732422 2191.492188 1337.669922 Z M 2005.802734 1091.576172 C 1997.061279 1091.580078 1988.530884 1087.054932 1983.869141 1078.980469 C 1935.06311 994.446167 1963.981323 886.524658 2048.515625 837.71875 C 2060.533447 830.780273 2076.041992 834.935303 2082.980469 846.953125 C 2089.918945 858.970947 2085.763672 874.479492 2073.746094 881.417969 C 2013.383789 916.268066 1992.720215 993.385742 2027.570313 1053.748047 C 2034.508789 1065.765869 2030.35376 1081.276367 2018.335938 1088.214844 C 2014.392578 1090.491577 2010.071777 1091.574219 2005.802734 1091.576172 Z"/>
        <path id="Ellipse-copy-3" fill="#000000" fill-rule="evenodd" stroke="none" d="M 1.242188 1599.923828 C -171.837769 1600.227295 -340.290009 1510.532227 -433.041016 1349.882813 C -571.08905 1110.776611 -489.164734 805.032349 -250.058594 666.984375 C -10.952434 528.936279 294.79187 610.860718 432.839844 849.966797 C 570.887817 1089.072998 488.963562 1394.817139 249.857422 1532.865234 C 171.400726 1578.162231 85.769608 1599.775635 1.242188 1599.923828 Z M 139.001953 1466.466797 C 160.3311 1466.426758 181.939774 1460.968384 201.746094 1449.533203 C 262.108246 1414.683105 282.771942 1337.565186 247.921875 1277.203125 L 235.306641 1255.353516 L 16.800781 1381.507813 L 29.416016 1403.357422 C 52.830936 1443.913208 95.327995 1466.548828 139.001953 1466.466797 Z M -8.507813 1337.669922 L 209.998047 1211.515625 L 210.076172 1211.652344 C 198.034561 1160.518555 203.764725 1107.680786 209.300781 1055.138672 C 210.804199 1041.342529 212.307617 1027.546631 213.458984 1013.771484 C 218.027832 959.238647 206.667496 902.978149 177.257813 852.039063 C 100.540321 719.1604 -69.205223 673.677856 -201.947266 750.316406 C -334.68927 826.954956 -380.171814 996.699341 -303.533203 1129.441406 C -274.123505 1180.380493 -231.000732 1218.487061 -181.568359 1241.660156 C -169.06311 1247.550537 -156.363586 1253.145996 -143.664063 1258.742188 C -95.256691 1280.139893 -46.554684 1301.732422 -8.507813 1337.669922 Z M -194.197266 1091.576172 C -202.938736 1091.580078 -211.46907 1087.054932 -216.130859 1078.980469 C -264.936737 994.446167 -236.018646 886.524658 -151.484375 837.71875 C -139.466583 830.780273 -123.958008 834.935303 -117.019531 846.953125 C -110.081055 858.970947 -114.236122 874.479492 -126.253906 881.417969 C -186.616028 916.268066 -207.279785 993.385742 -172.429688 1053.748047 C -165.491211 1065.765869 -169.648239 1081.276367 -181.666016 1088.214844 C -185.60936 1090.491577 -189.928177 1091.574219 -194.197266 1091.576172 Z"/>
        <path id="Ellipse-copy-6" fill="#000000" fill-rule="evenodd" stroke="none" d="M 552.267578 499.898438 C 379.187622 500.201904 210.735382 410.506836 117.984375 249.857422 C -20.063614 10.751221 61.860638 -294.99292 300.966797 -433.041016 C 540.072998 -571.088867 845.817261 -489.164551 983.865234 -250.058594 C 1121.913208 -10.952393 1039.988892 294.791748 800.882813 432.839844 C 722.426086 478.136841 636.794983 499.750244 552.267578 499.898438 Z M 690.025391 366.443359 C 711.354553 366.40332 732.965149 360.944946 752.771484 349.509766 C 813.133606 314.659668 833.797302 237.54187 798.947266 177.179688 L 786.332031 155.328125 L 567.826172 281.482422 L 580.441406 303.333984 C 603.856323 343.889771 646.35144 366.525269 690.025391 366.443359 Z M 542.515625 237.644531 L 761.021484 111.490234 L 761.101563 111.626953 C 749.059937 60.493164 754.7901 7.657471 760.326172 -44.884766 C 761.82959 -58.680908 763.333008 -72.476807 764.484375 -86.251953 C 769.053223 -140.784912 757.692871 -197.047363 728.283203 -247.986328 C 651.565674 -380.86499 481.82016 -426.347656 349.078125 -349.708984 C 216.336105 -273.070313 170.853546 -103.323975 247.492188 29.417969 C 276.901886 80.356934 320.022736 118.46167 369.455078 141.634766 C 381.960327 147.525146 394.659851 153.120605 407.359375 158.716797 C 455.766754 180.114502 504.46875 201.707031 542.515625 237.644531 Z M 356.828125 -8.449219 C 348.08667 -8.445313 339.554352 -12.970459 334.892578 -21.044922 C 286.0867 -105.579102 315.004791 -213.500732 399.539063 -262.306641 C 411.556854 -269.245117 427.067383 -265.090088 434.005859 -253.072266 C 440.944336 -241.054443 436.787323 -225.543945 424.769531 -218.605469 C 364.40741 -183.755371 343.743652 -106.637695 378.59375 -46.275391 C 385.532227 -34.257568 381.377197 -18.74707 369.359375 -11.808594 C 365.416046 -9.531982 361.097229 -8.451172 356.828125 -8.449219 Z"/>
        <path id="Ellipse-copy-5" fill="#000000" fill-rule="evenodd" stroke="none" d="M 1652.242188 499.898438 C 1479.162231 500.201904 1310.709961 410.506836 1217.958984 249.857422 C 1079.911011 10.751221 1161.835205 -294.99292 1400.941406 -433.041016 C 1640.047485 -571.088867 1945.79187 -489.164551 2083.839844 -250.058594 C 2221.887939 -10.952393 2139.963623 294.791748 1900.857422 432.839844 C 1822.400757 478.136841 1736.769653 499.750244 1652.242188 499.898438 Z M 1790.001953 366.443359 C 1811.331055 366.40332 1832.939819 360.944946 1852.746094 349.509766 C 1913.108276 314.659668 1933.771973 237.54187 1898.921875 177.179688 L 1886.306641 155.328125 L 1667.800781 281.482422 L 1680.416016 303.333984 C 1703.830933 343.889771 1746.328003 366.525269 1790.001953 366.443359 Z M 1642.492188 237.644531 L 1860.998047 111.490234 L 1861.076172 111.626953 C 1849.034546 60.493164 1854.764771 7.657471 1860.300781 -44.884766 C 1861.804199 -58.680908 1863.307617 -72.476807 1864.458984 -86.251953 C 1869.027832 -140.784912 1857.667603 -197.047363 1828.257813 -247.986328 C 1751.540405 -380.86499 1581.7948 -426.347656 1449.052734 -349.708984 C 1316.310669 -273.070313 1270.828247 -103.323975 1347.466797 29.417969 C 1376.876587 80.356934 1419.999146 118.46167 1469.431641 141.634766 C 1481.93689 147.525146 1494.636475 153.120605 1507.335938 158.716797 C 1555.743408 180.114502 1604.44519 201.707031 1642.492188 237.644531 Z M 1456.802734 -8.449219 C 1448.061279 -8.445313 1439.530884 -12.970459 1434.869141 -21.044922 C 1386.06311 -105.579102 1414.981323 -213.500732 1499.515625 -262.306641 C 1511.533447 -269.245117 1527.041992 -265.090088 1533.980469 -253.072266 C 1540.918945 -241.054443 1536.763916 -225.543945 1524.746094 -218.605469 C 1464.383911 -183.755371 1443.720215 -106.637695 1478.570313 -46.275391 C 1485.508789 -34.257568 1481.35376 -18.74707 1469.335938 -11.808594 C 1465.392578 -9.531982 1461.071777 -8.451172 1456.802734 -8.449219 Z"/>
        <path id="Ellipse-copy-9" fill="#000000" fill-rule="evenodd" stroke="none" d="M 1652.267578 2699.898438 C 1479.187622 2700.201904 1310.735352 2610.506836 1217.984375 2449.857422 C 1079.936401 2210.751221 1161.860596 1905.006958 1400.966797 1766.958984 C 1640.072876 1628.911011 1945.817139 1710.835327 2083.865234 1949.941406 C 2221.913086 2189.047607 2139.989014 2494.791992 1900.882813 2632.839844 C 1822.426147 2678.136719 1736.795044 2699.750244 1652.267578 2699.898438 Z M 1790.025391 2566.443359 C 1811.354492 2566.40332 1832.96521 2560.944824 1852.771484 2549.509766 C 1913.133667 2514.659668 1933.797363 2437.541748 1898.947266 2377.179688 L 1886.332031 2355.328125 L 1667.826172 2481.482422 L 1680.441406 2503.333984 C 1703.856323 2543.889648 1746.35144 2566.525391 1790.025391 2566.443359 Z M 1642.515625 2437.644531 L 1861.021484 2311.490234 L 1861.101563 2311.626953 C 1849.059937 2260.493164 1854.790161 2207.657227 1860.326172 2155.115234 C 1861.82959 2141.319092 1863.333008 2127.523193 1864.484375 2113.748047 C 1869.053223 2059.215332 1857.692993 2002.952759 1828.283203 1952.013672 C 1751.565796 1819.13501 1581.82019 1773.652344 1449.078125 1850.291016 C 1316.33606 1926.929688 1270.853638 2096.674072 1347.492188 2229.416016 C 1376.901978 2280.35498 1420.022583 2318.46167 1469.455078 2341.634766 C 1481.960327 2347.525146 1494.65979 2353.120605 1507.359375 2358.716797 C 1555.766846 2380.114502 1604.468628 2401.707031 1642.515625 2437.644531 Z M 1456.828125 2191.550781 C 1448.08667 2191.554688 1439.556274 2187.029541 1434.894531 2178.955078 C 1386.088501 2094.420898 1415.004761 1986.499268 1499.539063 1937.693359 C 1511.556885 1930.754883 1527.067383 1934.909912 1534.005859 1946.927734 C 1540.944336 1958.945557 1536.787354 1974.456055 1524.769531 1981.394531 C 1464.407349 2016.244629 1443.743652 2093.362549 1478.59375 2153.724609 C 1485.532227 2165.742432 1481.377197 2181.250977 1469.359375 2188.189453 C 1465.416016 2190.466064 1461.097168 2191.548828 1456.828125 2191.550781 Z"/>
        <path id="Ellipse-copy-7" fill="#000000" fill-rule="evenodd" stroke="none" d="M 552.242188 2699.898438 C 379.162231 2700.201904 210.709976 2610.506836 117.958984 2449.857422 C -20.08901 2210.751221 61.835251 1905.006958 300.941406 1766.958984 C 540.047607 1628.911011 845.79187 1710.835327 983.839844 1949.941406 C 1121.887817 2189.047607 1039.963501 2494.791992 800.857422 2632.839844 C 722.400696 2678.136719 636.769592 2699.750244 552.242188 2699.898438 Z M 690.001953 2566.443359 C 711.331116 2566.40332 732.939758 2560.944824 752.746094 2549.509766 C 813.108215 2514.659668 833.771912 2437.541748 798.921875 2377.179688 L 786.306641 2355.328125 L 567.800781 2481.482422 L 580.416016 2503.333984 C 603.830872 2543.889648 646.328003 2566.525391 690.001953 2566.443359 Z M 542.492188 2437.644531 L 760.998047 2311.490234 L 761.076172 2311.626953 C 749.034546 2260.493164 754.764709 2207.657227 760.300781 2155.115234 C 761.804199 2141.319092 763.307617 2127.523193 764.458984 2113.748047 C 769.027832 2059.215332 757.66748 2002.952759 728.257813 1952.013672 C 651.540283 1819.13501 481.794769 1773.652344 349.052734 1850.291016 C 216.310715 1926.929688 170.828156 2096.674072 247.466797 2229.416016 C 276.876495 2280.35498 319.999298 2318.46167 369.431641 2341.634766 C 381.93692 2347.525146 394.636383 2353.120605 407.335938 2358.716797 C 455.743286 2380.114502 504.445313 2401.707031 542.492188 2437.644531 Z M 356.802734 2191.550781 C 348.061279 2191.554688 339.530914 2187.029541 334.869141 2178.955078 C 286.063263 2094.420898 314.981354 1986.499268 399.515625 1937.693359 C 411.533417 1930.754883 427.041992 1934.909912 433.980469 1946.927734 C 440.918945 1958.945557 436.763885 1974.456055 424.746094 1981.394531 C 364.383972 2016.244629 343.720215 2093.362549 378.570313 2153.724609 C 385.508789 2165.742432 381.351807 2181.250977 369.333984 2188.189453 C 365.390656 2190.466064 361.071838 2191.548828 356.802734 2191.550781 Z"/>
    </g>
</svg>

<svg xmlns="http://www.w3.org/2000/svg" width="2200" height="2200" opacity=".049" fill-rule="evenodd" xmlns:v="https://vecta.io/nano"><path d="M1101.268 1599.924c-173.08.303-341.532-89.392-434.283-250.041-138.048-239.106-56.124-544.85 182.982-682.898s544.85-56.124 682.898 182.982 56.124 544.85-182.982 682.898c-78.457 45.297-164.088 66.91-248.615 67.059zm137.758-133.457c21.329-.04 42.94-5.498 62.746-16.934 60.362-34.85 81.026-111.968 46.176-172.33l-12.615-21.85-218.506 126.154 12.615 21.85c23.415 40.556 65.91 63.191 109.584 63.109zm-147.51-128.797l218.506-126.154.08.137c-12.042-51.134-6.311-103.972-.775-156.514l4.158-41.367c4.569-54.533-6.791-110.793-36.201-161.732-76.717-132.879-246.463-178.361-379.205-101.723S719.854 996.7 796.493 1129.442c29.41 50.939 72.531 89.046 121.963 112.219 12.505 5.89 25.205 11.486 37.904 17.082 48.407 21.398 97.109 42.99 135.156 78.928zm-185.687-246.094c-8.741.004-17.274-4.521-21.936-12.596-48.806-84.534-19.888-192.456 64.646-241.262 12.018-6.938 27.528-2.783 34.467 9.234s2.781 27.526-9.236 34.465c-60.362 34.85-81.026 111.968-46.176 172.33 6.938 12.018 2.783 27.528-9.234 34.467a25.01 25.01 0 0 1-12.531 3.361zm1295.413 508.348c-173.08.303-341.532-89.392-434.283-250.041-138.048-239.106-56.124-544.85 182.982-682.898s544.851-56.124 682.898 182.982 56.124 544.85-182.982 682.898c-78.457 45.297-164.088 66.91-248.615 67.059zM2339 1466.467c21.329-.04 42.94-5.498 62.746-16.934 60.362-34.85 81.026-111.968 46.176-172.33l-12.615-21.85-218.506 126.154 12.617 21.85c23.415 40.556 65.908 63.191 109.582 63.109zm-147.508-128.797l218.506-126.154.078.137c-12.042-51.134-6.312-103.972-.775-156.514l4.158-41.367c4.569-54.533-6.792-110.793-36.201-161.732-76.718-132.879-246.463-178.361-379.205-101.723s-178.224 246.383-101.586 379.125c29.41 50.939 72.532 89.046 121.965 112.219 12.505 5.89 25.205 11.486 37.904 17.082 48.407 21.398 97.109 42.99 135.156 78.928zm-185.689-246.094c-8.741.004-17.272-4.521-21.934-12.596-48.806-84.534-19.888-192.456 64.646-241.262 12.018-6.938 27.526-2.783 34.465 9.234s2.783 27.526-9.234 34.465c-60.362 34.85-81.026 111.968-46.176 172.33 6.938 12.018 2.783 27.528-9.234 34.467a25.02 25.02 0 0 1-12.533 3.361zM1.242 1599.924c-173.08.303-341.532-89.392-434.283-250.041-138.048-239.106-56.124-544.85 182.982-682.898s544.85-56.124 682.898 182.982 56.124 544.85-182.982 682.898c-78.457 45.297-164.088 66.91-248.615 67.059zm137.76-133.457c21.329-.04 42.938-5.498 62.744-16.934 60.362-34.85 81.026-111.968 46.176-172.33l-12.615-21.85-218.506 126.154 12.615 21.85c23.415 40.556 65.912 63.191 109.586 63.109zM-8.508 1337.67l218.506-126.154.078.137c-12.042-51.134-6.311-103.972-.775-156.514l4.158-41.367c4.569-54.533-6.791-110.793-36.201-161.732C100.54 719.16-69.205 673.678-201.947 750.316s-178.225 246.383-101.586 379.125c29.41 50.939 72.532 89.046 121.965 112.219 12.505 5.89 25.205 11.486 37.904 17.082 48.407 21.398 97.109 42.99 135.156 78.928zm-185.689-246.094c-8.741.004-17.272-4.521-21.934-12.596-48.806-84.534-19.888-192.456 64.646-241.262 12.018-6.938 27.526-2.783 34.465 9.234s2.783 27.526-9.234 34.465c-60.362 34.85-81.026 111.968-46.176 172.33 6.938 12.018 2.781 27.528-9.236 34.467a25.01 25.01 0 0 1-12.531 3.361zm746.465-591.678c-173.08.303-341.532-89.392-434.283-250.041-138.048-239.106-56.124-544.85 182.982-682.898s544.85-56.124 682.898 182.982 56.124 544.85-182.982 682.898c-78.457 45.297-164.088 66.91-248.615 67.059zm137.758-133.455c21.329-.04 42.94-5.498 62.746-16.934 60.362-34.85 81.026-111.968 46.176-172.33l-12.615-21.852-218.506 126.154 12.615 21.852c23.415 40.556 65.91 63.191 109.584 63.109zm-147.51-128.799L761.021 111.49l.08.137c-12.042-51.134-6.311-103.969-.775-156.512l4.158-41.367c4.569-54.533-6.792-110.795-36.201-161.734-76.718-132.879-246.463-178.361-379.205-101.723S170.854-103.324 247.492 29.418c29.41 50.939 72.531 89.044 121.963 112.217 12.505 5.89 25.205 11.486 37.904 17.082 48.407 21.398 97.109 42.99 135.156 78.928zM356.828-8.449c-8.741.004-17.274-4.521-21.936-12.596-48.806-84.534-19.888-192.456 64.646-241.262 12.018-6.938 27.528-2.783 34.467 9.234s2.781 27.528-9.236 34.467c-60.362 34.85-81.026 111.968-46.176 172.33 6.938 12.018 2.783 27.528-9.234 34.467a25.01 25.01 0 0 1-12.531 3.359zm1295.414 508.347c-173.08.303-341.532-89.392-434.283-250.041-138.048-239.106-56.124-544.85 182.982-682.898s544.85-56.124 682.898 182.982 56.124 544.85-182.982 682.898c-78.457 45.297-164.088 66.91-248.615 67.059zm137.76-133.455c21.329-.04 42.938-5.498 62.744-16.934 60.362-34.85 81.026-111.968 46.176-172.33l-12.615-21.852-218.506 126.154 12.615 21.852c23.415 40.556 65.912 63.191 109.586 63.109zm-147.51-128.799l218.506-126.154.078.137c-12.042-51.134-6.311-103.969-.775-156.512l4.158-41.367c4.569-54.533-6.791-110.795-36.201-161.734-76.717-132.879-246.463-178.361-379.205-101.723s-178.224 246.385-101.586 379.127c29.41 50.939 72.532 89.044 121.965 112.217 12.505 5.89 25.205 11.486 37.904 17.082 48.407 21.398 97.109 42.99 135.156 78.928zM1456.803-8.449c-8.741.004-17.272-4.521-21.934-12.596-48.806-84.534-19.888-192.456 64.646-241.262 12.018-6.938 27.526-2.783 34.465 9.234s2.783 27.528-9.234 34.467c-60.362 34.85-81.026 111.968-46.176 172.33 6.938 12.018 2.783 27.528-9.234 34.467a25.02 25.02 0 0 1-12.533 3.359zm195.465 2708.347c-173.08.303-341.532-89.392-434.283-250.041-138.048-239.106-56.124-544.85 182.982-682.898s544.85-56.124 682.898 182.982 56.124 544.851-182.982 682.898c-78.457 45.297-164.088 66.91-248.615 67.059zm137.758-133.455c21.329-.04 42.94-5.499 62.746-16.934 60.362-34.85 81.026-111.968 46.176-172.33l-12.615-21.852-218.506 126.154 12.615 21.852c23.415 40.556 65.91 63.191 109.584 63.109zm-147.51-128.799l218.506-126.154.08.137c-12.042-51.134-6.311-103.97-.775-156.512l4.158-41.367c4.569-54.533-6.791-110.795-36.201-161.734-76.717-132.879-246.463-178.361-379.205-101.723s-178.224 246.383-101.586 379.125c29.41 50.939 72.53 89.046 121.963 112.219 12.505 5.89 25.205 11.486 37.904 17.082 48.407 21.398 97.109 42.99 135.156 78.928zm-185.687-246.094c-8.741.004-17.272-4.521-21.934-12.596-48.806-84.534-19.89-192.456 64.645-241.262 12.018-6.938 27.528-2.783 34.467 9.234s2.781 27.528-9.236 34.467c-60.362 34.85-81.026 111.968-46.176 172.33 6.938 12.018 2.783 27.526-9.234 34.465a25.01 25.01 0 0 1-12.531 3.361zm-904.587 508.348c-173.08.303-341.532-89.392-434.283-250.041-138.048-239.106-56.124-544.85 182.982-682.898s544.85-56.124 682.898 182.982 56.124 544.851-182.982 682.898c-78.457 45.297-164.088 66.91-248.615 67.059zm137.76-133.455c21.329-.04 42.938-5.499 62.744-16.934 60.362-34.85 81.026-111.968 46.176-172.33l-12.615-21.852-218.506 126.154 12.615 21.852c23.415 40.556 65.912 63.191 109.586 63.109zm-147.51-128.799l218.506-126.154.078.137c-12.042-51.134-6.311-103.97-.775-156.512l4.158-41.367c4.569-54.533-6.792-110.795-36.201-161.734-76.718-132.879-246.463-178.361-379.205-101.723s-178.225 246.383-101.586 379.125c29.41 50.939 72.533 89.046 121.965 112.219 12.505 5.89 25.205 11.486 37.904 17.082 48.407 21.398 97.109 42.99 135.156 78.928zM356.803 2191.55c-8.741.004-17.272-4.521-21.934-12.596-48.806-84.534-19.888-192.456 64.646-241.262 12.018-6.938 27.526-2.783 34.465 9.234s2.783 27.528-9.234 34.467c-60.362 34.85-81.026 111.968-46.176 172.33 6.938 12.018 2.781 27.526-9.236 34.465a25.01 25.01 0 0 1-12.531 3.361z"/></svg>
